themes/peppercarrot-theme_v2/ico/rss.svg

<svg width="32" height="32" version="1.1" viewBox="0 0 100 100" xmlns="http://www.w3.org/2000/svg">
 <g transform="matrix(.949 0 0 .941 28.1 -45.8)" fill="#806C5D">
  <path d="m-14.7 51.8h75.5c6.68 0 12.1 5.38 12.1 12.1v75.9c0 6.68-5.38 12.1-12.1 12.1h-75.5c-6.72 0-12.1-5-12.1-11.6v-75.9c0-6.7 5.38-12.6 12.1-12.6z" color="#000000" color-rendering="auto" fill="#806C5D" image-rendering="auto" shape-rendering="auto" solid-color="#000000" style="isolation:auto;mix-blend-mode:normal"/>
 </g>
 <g transform="matrix(.0398 0 0 -.0424 20.5 80)" fill="#d7d2cf" style="font-variant-east_asian:normal">
  <path d="m384 192q0-80-56-136t-136-56-136 56-56 136 56 136 136 56 136-56 56-136zm512-123q2-28-17-48-18-21-47-21h-135q-25 0-43 16.5t-20 41.5q-22 229-184 392-163 162-392 184-25 2-41.5 20t-16.5 43v135q0 29 21 47 17 17 43 17h5q160-13 306-80 146-68 259-182 114-113 182-259 67-146 80-306zm512-2q0-27-20-47t-50-20h-140q-20 0-40 17.5t-20 42.5q-20 215-100 408-93 194-236 336-142 143-336 236-193 80-408 100-25 0-42.5 20t-17.5 40v143q0 28 20 46 18 18 44 18h3q262 0 501-110 240-110 426-296t296-426q110-239 120-501z" fill="#d7d2cf" style="font-variant-east_asian:normal"/>
 </g>
</svg>

<?xml version="1.0" encoding="UTF-8" standalone="no"?>
<svg
   xmlns:dc="http://purl.org/dc/elements/1.1/"
   xmlns:cc="http://creativecommons.org/ns#"
   xmlns:rdf="http://www.w3.org/1999/02/22-rdf-syntax-ns#"
   xmlns:svg="http://www.w3.org/2000/svg"
   xmlns="http://www.w3.org/2000/svg"
   xmlns:sodipodi="http://sodipodi.sourceforge.net/DTD/sodipodi-0.dtd"
   xmlns:inkscape="http://www.inkscape.org/namespaces/inkscape"
   height="28"
   width="28"
   version="1.1"
   viewBox="0 0 100 100"
   id="svg8"
   sodipodi:docname="rss.svg"
   inkscape:version="0.92.3 (unknown)">
  <metadata
     id="metadata14">
    <rdf:RDF>
      <cc:Work
         rdf:about="">
        <dc:format>image/svg+xml</dc:format>
        <dc:type
           rdf:resource="http://purl.org/dc/dcmitype/StillImage" />
      </cc:Work>
    </rdf:RDF>
  </metadata>
  <defs
     id="defs12" />
  <sodipodi:namedview
     pagecolor="#ffffff"
     bordercolor="#666666"
     borderopacity="1"
     objecttolerance="10"
     gridtolerance="10"
     guidetolerance="10"
     inkscape:pageopacity="0"
     inkscape:pageshadow="2"
     inkscape:window-width="1170"
     inkscape:window-height="745"
     id="namedview10"
     showgrid="false"
     inkscape:zoom="8.4285714"
     inkscape:cx="12.042373"
     inkscape:cy="11.271186"
     inkscape:window-x="1974"
     inkscape:window-y="179"
     inkscape:window-maximized="0"
     inkscape:current-layer="svg8" />
  <g
     style="fill:#826046;fill-opacity:1;stroke:none;stroke-width:4.08221865;stroke-miterlimit:4;stroke-dasharray:none;stroke-opacity:1"
     transform="matrix(0.94899461,0,0,0.94075204,28.098824,-45.790206)"
     id="g4173">
    <path
       style="color:#000000;isolation:auto;mix-blend-mode:normal;solid-color:#000000;fill:#826046;fill-opacity:1;stroke:none;stroke-width:4.08221865;stroke-miterlimit:4;stroke-dasharray:none;stroke-opacity:1;color-rendering:auto;image-rendering:auto;shape-rendering:auto"
       d="m -14.671707,51.773012 h 75.5 c 6.68,0 12.1,5.38 12.1,12.1 v 75.899998 c 0,6.68 -5.38,12.1 -12.1,12.1 h -75.5 c -6.72,0 -12.1,-5 -12.1,-11.6 V 64.373012 c 0,-6.7 5.38,-12.588281 12.1,-12.588281 z"
       id="path4161"
       inkscape:connector-curvature="0" />
  </g>
  <g
     transform="matrix(0.0398,0,0,-0.0424,20.486441,79.971186)"
     id="g6"
     style="font-variant-east_asian:normal;opacity:1;vector-effect:none;fill:#d7d2cf;fill-opacity:1;stroke:none;stroke-width:1.06135831;stroke-linecap:butt;stroke-linejoin:miter;stroke-miterlimit:4;stroke-dasharray:none;stroke-dashoffset:0;stroke-opacity:1">
    <path
       d="M 384,192 Q 384,112 328,56 272,0 192,0 112,0 56,56 0,112 0,192 q 0,80 56,136 56,56 136,56 80,0 136,-56 56,-56 56,-136 z M 896,69 Q 898,41 879,21 861,0 832,0 H 697 Q 672,0 654,16.5 636,33 634,58 612,287 450,450 287,612 58,634 33,636 16.5,654 0,672 0,697 v 135 q 0,29 21,47 17,17 43,17 h 5 Q 229,883 375,816 521,748 634,634 748,521 816,375 883,229 896,69 Z m 512,-2 q 0,-27 -20,-47 -20,-20 -50,-20 h -140 q -20,0 -40,17.5 -20,17.5 -20,42.5 -20,215 -100,408 -93,194 -236,336 -142,143 -336,236 -193,80 -408,100 -25,0 -42.5,20 -17.5,20 -17.5,40 v 143 q 0,28 20,46 18,18 44,18 h 3 q 262,0 501,-110 240,-110 426,-296 186,-186 296,-426 110,-239 120,-501 z"
       id="path4"
       inkscape:connector-curvature="0"
       style="fill:#d7d2cf;font-variant-east_asian:normal;vector-effect:none;fill-opacity:1;stroke:none;stroke-width:1.06135831;stroke-linecap:butt;stroke-linejoin:miter;stroke-miterlimit:4;stroke-dasharray:none;stroke-dashoffset:0;stroke-opacity:1" />
  </g>
</svg>
